!!!OTL: Papstaustreiben.
!!!ARE: Europa, Mitteleuropa, Deutschland
!!!SCT: A0631
!!!TXL: @@DE
!!!YEM: Copyright 1995, estate of Helmut Schaffrath.
**kern	**text
*M6/4	*
*k[b-]	*
*G:dor	*
!LO:TX:a:t=dor. tr.	!
{4g	Nun
=1	=1
2dd	trei-
4dd	-ben
2cc	wir
4cc	den
=2	=2
2dd	Babſt
4dd	her-
2g}	-aus,
{4g	aus
=3	=3
2dd	Chriſtus
4cc	.
2ff	Kirch
4ee	vnd
=4	=4
2dd	Got-
4cc#i	-tes-
2dd}	-haus,
{4dd	Dar-
=5	=5
2gg	-inn
4gg	er
2ee	mördlich
4ee	.
=6	=6
2ff	hat
4ff	re-
2dd}	-giert
{4g	vnd
=7	=7
2b-	un-
4cc	-ʒe-
2dd	-lich
4cc	viel
=8	=8
2b-/	Seel'n
4a	ver-
2g}	-fůrt.
==	==
!!!GTL: Geistliche Volkslieder
!!!AGN: Romanze, Ballade, Lied, religioeses Lied
!! Fl. Bl. 1541
!!!ONB: ESAC (Essen Associative Code) Database: ALTDEU
!!!AMT: compound duple
!!!AIN: vox
!!!EED: Helmut Schaffrath
!!!EEV: 1.0
!!!RDF**kern: i = editorial accidental
!!!RDF**kern: l = terminal long
!!!AMD: Dorian
!!!URL-scan: https://rosdok.uni-rostock.de/mcrviewer/recordIdentifier/rosdok_ppn738218359/iview2/phys_0812.iview2?x=113.63509606070716&y=726.4491075999103&scale=0.7106933083589261&rotation=0&layout=singlePageLayout&logicalDiv=log_0007
!!!ENC: Anna Maria Matuszewska
!!!EEV: 2024/25/03
*-	*-
